rospo-icon-theme-classic-common/22x22/places/folder-magenta-music.svg

<svg height="22" width="22" xmlns="http://www.w3.org/2000/svg"><rect height="12" opacity=".2" rx="1" width="20" x="1" y="8.5"/><path d="m1 16c0 .554.446 1 1 1h18c .554 0 1-.446 1-1v-11c0-.554-.446-1-1-1h-10v-1c0-.554-.446-1-1-1h-7c-.554 0-1 .446-1 1" fill="#b259b8"/><rect height="12" opacity=".2" rx="1" width="20" x="1" y="7.5"/><rect fill="#e4e4e4" height="8" rx="1" width="16" x="3" y="6"/><rect fill="#ca71df" height="12" rx="1" width="20" x="1" y="8"/><path d="m2 2c-.554 0-1 .446-1 1v .5c0-.554.446-1 1-1h7c .554 0 1 .446 1 1v-.5c0-.554-.446-1-1-1zm8 2v .5h10c .554 0 1 .446 1 1v-.5c0-.554-.446-1-1-1z" fill="#fff" opacity=".1"/><path d="m10 14.088c-.161-.057-.33-.087-.5-.088-.828 0-1.5.672-1.5 1.5 0 .829.672 1.5 1.5 1.5s1.5-.671 1.5-1.5v-3.5h3v2.088c-.161-.057-.33-.087-.5-.088-.828 0-1.5.672-1.5 1.5 0 .829.672 1.5 1.5 1.5s1.5-.671 1.5-1.5v-5c0-.277-.334-.5-.75-.5h-3.5c-.416 0-.75.223-.75.5" fill="#47274e"/></svg>

<svg xmlns="http://www.w3.org/2000/svg" width="22" height="22" version="1">
 <rect style="opacity:0.2" width="20" height="12" x="1" y="8.5" rx="1" ry="1"/>
 <path style="fill:#b259b8" d="M 1,16 C 1,16.554 1.446,17 2,17 H 20 C 20.554,17 21,16.554 21,16 V 5 C 21,4.446 20.554,4 20,4 H 10 V 3 C 10,2.446 9.554,2 9,2 H 2 C 1.446,2 1,2.446 1,3"/>
 <rect style="opacity:0.2" width="20" height="12" x="1" y="7.5" rx="1" ry="1"/>
 <rect style="fill:#dcdcdc" width="16" height="8" x="3" y="6" rx="1" ry="1"/>
 <rect style="fill:#ca71df" width="20" height="12" x="1" y="8" rx="1" ry="1"/>
 <path style="opacity:0.1;fill:#ffffff" d="M 2,2 C 1.446,2 1,2.446 1,3 V 3.5 C 1,2.946 1.446,2.5 2,2.5 H 9 C 9.554,2.5 10,2.946 10,3.5 V 3 C 10,2.446 9.554,2 9,2 Z M 10,4 V 4.5 H 20 C 20.554,4.5 21,4.946 21,5.5 V 5 C 21,4.446 20.554,4 20,4 Z"/>
 <path style="fill:#47274e" d="M 10,14.088 C 9.839,14.031 9.67,14.001 9.5,14 8.672,14 8,14.672 8,15.5 8,16.329 8.672,17 9.5,17 10.328,17 11,16.329 11,15.5 V 12 H 14 V 14.088 C 13.839,14.031 13.67,14.001 13.5,14 12.672,14 12,14.672 12,15.5 12,16.329 12.672,17 13.5,17 14.328,17 15,16.329 15,15.5 V 10.5 C 15,10.223 14.666,10 14.25,10 H 10.75 C 10.334,10 10,10.223 10,10.5"/>
</svg>
